X:234
T:True Blue - Peake
%%VWML:SBG-1-2-468-0
F:http://www.vwml.org/record/SBG/1/2/468
Z:Original Sibelius transcriptions by M. & S. Graebe
M:4/4
I:linebreak $
K:D
V:1 treble nm="P1"
V:1
 DF | A2 FA d2 cd | B2 AA A2 DF | A2 ^GA BA FD | E6 DF |$ A2 FA d2 cB | B2 A A A2 Ac | %7
w: When the|drums beat to arms then each|bold Bri- tish tar Bids fare-|well to his girl, _ wife or|friend. Cour- *|a- geous- ly flies to the|ban- ner of war, His _|
 e2 cA e2 E^G | A6 A2 | A2 EF GG G2 |$ d2 cB A2 A2 | B2 cc d2 ed | (d4 c2) A2 | F2 DF A2 FA | %14
w: count- ry and King to de-|fend. His|heart burns for vic- tor- y,|hon- our and gain, De-|ter- mined his foes to sub-|due. _ He|flies to the bul- wark that|
 d2 cB A2 AA |$ B2 cd ee dc | d4 z2 DF | A2 AA AA EF | (G4 F2) DF | A2 AA Ad de |$ f4 z2 D2 | %21
w: breasts the blue main. None can|e- qual the cour- age of True|Blue. None can|e- qual the cour- age of True|Blue, _ None can|e- qual the cour- age of True|Blue. He|
 F2 DF A2 FA | d2 cB A2 AA | B2 cd !fermata!e2"^ad lib." dc | d4 z2 x2 | %25
w: flies to the bul- wark that|breasts the blue main. None can|e- qual the courage of True|Blue.|
T:True Blue - Apollo's Cabinet
F:http://www.vwml.org/record/SBG/1/2/468
Z:Original Sibelius transcriptions by M. & S. Graebe
M:6/8
I:linebreak $
K:G
V:1 treble nm="P1"
V:1
 G | B3/2 A/ G (dc) B | e3/2 f/ g f2 g/f/ | e d c B A G | (F3 F2) | d/ d/ | e c B c a g |$ %7
 f d f g2 g/ a/ | b a g f d f | g3 B3 | c3- c2 B/A/ | B c d g B A | (G3 G2) x | %13



